icon-themes/breeze_svg/cmd/sc_arrowshapes.up-down-arrow-callout.svg

<svg viewBox="0 0 16 16" xmlns="http://www.w3.org/2000/svg">/&gt;<path d="m8 2-3 3h2v2h-5v2h5v2h-2l3 3 3-3h-2v-2h5v-2h-5v-2h2z" fill="#4d4d4d"/></svg>

<svg xmlns="http://www.w3.org/2000/svg" viewBox="0 0 16 16">
     />
 <path 
     style="fill:#4d4d4d" 
     d="M 8 2 L 5 5 L 7 5 L 7 7 L 2 7 L 2 9 L 7 9 L 7 11 L 5 11 L 8 14 L 11 11 L 9 11 L 9 9 L 14 9 L 14 7 L 9 7 L 9 5 L 11 5 L 8 2 z "
     />
 </svg>
